X: 3
T: The Crooked Road To Dublin
R: reel
M: 4/4
L: 1/8
K: Gmaj
G3G FGAF|G2FG AdcA|G2AG FGAg|1 fdcA dBcA:|2 fdcA d2Bc||dg~g2 fgaf|dg~g2 agfe|dg~g2 fgag|fdcA d2Bc|dg~g2 fgaf|dg~g2 a2ga|bgaf gbag|fdcA d2cA||


Tune 227	Setting 12913

